icons/splunk/splunk-original-wordmark.svg

<?xml version="1.0" encoding="UTF-8" standalone="no" ?>
<!DOCTYPE svg PUBLIC "-//W3C//DTD SVG 1.1//EN" "http://www.w3.org/Graphics/SVG/1.1/DTD/svg11.dtd">
<svg xmlns="http://www.w3.org/2000/svg" xmlns:xlink="http://www.w3.org/1999/xlink" version="1.1" width="1080" height="1080" viewBox="0 0 1080 1080" xml:space="preserve">
<desc>Created with Fabric.js 5.2.4</desc>
<defs>
</defs>
<g transform="matrix(1 0 0 1 540 540)" id="3cabc8a9-c607-42bc-81cd-ac6727c06fd2"  >
</g>
<g transform="matrix(1 0 0 1 540 540)" id="d2b9be50-1c18-4fb5-b61e-543265001b2f"  >
<rect style="stroke: none; stroke-width: 1; stroke-dasharray: none; stroke-linecap: butt; stroke-dashoffset: 0; stroke-linejoin: miter; stroke-miterlimit: 4; fill: rgb(255,255,255); fill-rule: nonzero; opacity: 1; visibility: hidden;" vector-effect="non-scaling-stroke"  x="-540" y="-540" rx="0" ry="0" width="1080" height="1080" />
</g>
<g transform="matrix(31.65 0 0 19.02 613.64 617.47)"  >
<rect style="stroke: none; stroke-width: 1; stroke-dasharray: none; stroke-linecap: butt; stroke-dashoffset: 0; stroke-linejoin: miter; stroke-miterlimit: 4; fill: rgb(255,255,255); fill-rule: nonzero; opacity: 1;" vector-effect="non-scaling-stroke"  x="-50" y="-40" rx="0" ry="0" width="100" height="80" />
</g>
<g transform="matrix(27.2 0 0 27.2 599.02 708.11)"  >
<path style="stroke: none; stroke-width: 1; stroke-dasharray: none; stroke-linecap: butt; stroke-dashoffset: 0; stroke-linejoin: miter; stroke-miterlimit: 4; fill: rgb(12,23,36); fill-rule: nonzero; opacity: 1;" vector-effect="non-scaling-stroke"  transform=" translate(-64.3, -64.98)" d="M 41.172 47.891 L 41.172 73.368 L 45.766 73.368 L 45.766 47.891 L 41.172 47.891 M 88.235 47.891 L 88.235 73.368 L 92.856 73.368 L 92.856 64.18 C 93.559 64.99300000000001 94.14099999999999 65.94600000000001 94.77 66.813 L 97.926 71.19200000000001 L 99.25 73.03200000000001 C 99.371 73.19600000000001 99.57 73.626 99.777 73.68 C 99.886 73.70700000000001 100.043 73.625 100.144 73.59 L 100.968 73.297 L 104.031 72.235 L 102.57400000000001 70.399 L 99.64000000000001 66.754 L 97.94500000000002 64.641 L 97.05000000000003 63.571000000000005 L 97.05000000000003 63.540000000000006 C 97.59700000000002 63.12200000000001 98.06600000000003 62.489000000000004 98.52700000000003 61.97800000000001 L 101.15600000000003 59.162000000000006 L 102.41800000000003 57.81400000000001 C 102.59400000000004 57.61500000000001 102.82000000000004 57.44700000000001 102.93000000000004 57.20100000000001 C 102.07800000000003 56.95900000000001 101.23500000000004 56.486000000000004 100.41800000000003 56.135000000000005 C 100.21500000000003 56.04900000000001 99.69100000000003 55.705000000000005 99.47300000000004 55.776 C 99.32100000000004 55.827000000000005 99.17600000000004 56.073 99.07500000000005 56.194 L 98.14900000000004 57.264 L 94.66100000000004 61.307 L 93.71200000000005 62.409 C 93.59500000000004 62.542 93.45400000000005 62.78 93.28200000000004 62.85 C 93.16100000000004 62.897 92.98900000000003 62.866 92.85600000000004 62.866 L 92.85600000000004 47.891 L 88.23500000000004 47.891 M 109.11400000000005 51.704 C 108.88503991913427 51.736168381691094 108.66609306994383 51.8188285026023 108.47300000000004 51.946 C 107.16400000000004 52.829 107.94200000000004 55.050999999999995 109.54300000000003 54.797999999999995 C 109.78500000000004 54.763 110.01600000000003 54.684999999999995 110.21900000000004 54.544 C 111.52000000000004 53.645999999999994 110.71100000000004 51.45399999999999 109.11400000000003 51.70399999999999 M 109.14500000000004 51.94199999999999 C 110.78600000000004 51.70799999999999 111.13300000000004 54.34799999999999 109.51200000000004 54.55899999999999 C 107.90700000000004 54.76999999999999 107.55900000000004 52.17199999999999 109.14500000000004 51.94199999999999 M 108.77800000000003 54.13699999999999 L 109.05500000000004 54.13699999999999 L 109.05500000000004 53.40299999999999 C 109.22300000000004 53.40299999999999 109.40700000000004 53.39099999999999 109.52400000000003 53.53199999999999 C 109.75100000000003 53.80899999999999 109.54000000000003 54.136999999999986 110.00400000000003 54.136999999999986 C 109.94500000000004 53.86399999999998 109.94500000000004 53.417999999999985 109.63700000000003 53.31299999999999 C 109.73100000000002 53.25099999999999 109.82500000000003 53.191999999999986 109.89100000000003 53.097999999999985 C 110.28200000000004 52.51999999999998 109.20400000000004 52.124999999999986 108.82900000000004 52.42599999999999 C 108.73500000000004 52.499999999999986 108.77800000000003 52.74599999999999 108.77800000000003 52.85199999999999 L 108.77800000000003 54.136999999999986 M 109.05500000000004 53.18799999999999 C 109.05500000000004 53.05099999999999 108.99600000000004 52.74299999999999 109.08600000000004 52.62899999999999 C 109.34400000000004 52.31299999999999 110.05100000000004 53.05099999999999 109.39100000000005 53.17999999999999 C 109.28200000000005 53.199999999999996 109.16400000000004 53.187999999999995 109.05500000000005 53.187999999999995 M 6.699 71.805 C 7.695 72.465 8.616999999999999 73.13300000000001 9.789 73.453 C 12.758 74.266 16.965 73.793 18.491999999999997 70.73400000000001 C 18.691418186625608 70.3479954478034 18.832293879752914 69.93446799453258 18.909999999999997 69.507 C 19.014999999999997 68.917 19.014999999999997 68.32300000000001 18.936999999999998 67.73400000000001 C 18.601 65.26100000000001 15.901999999999997 63.78500000000001 14.104999999999997 62.394000000000005 C 13.499999999999996 61.925000000000004 12.772999999999996 61.41700000000001 12.374999999999996 60.749 C 11.694999999999997 59.608000000000004 12.640999999999996 58.464 13.800999999999997 58.261 C 14.609999999999996 58.116 15.511999999999997 58.312000000000005 16.249999999999996 58.648 C 16.589999999999996 58.804 16.894999999999996 59.031000000000006 17.229999999999997 59.191 C 17.530999999999995 58.644000000000005 17.889999999999997 58.129000000000005 18.214 57.597 C 18.296 57.468 18.549999999999997 57.179 18.519 57.023 C 18.483999999999998 56.855000000000004 18.073999999999998 56.711000000000006 17.933 56.64 C 17.304 56.324 16.66 56.058 15.975999999999999 55.886 C 13.382 55.234 9.916999999999998 55.558 8.350999999999999 58.027 C 8.094757546403079 58.43209245058963 7.907230458627706 58.87675127493628 7.795999999999999 59.343 C 7.708832034738569 59.72469381877514 7.668203007397149 60.11553834625788 7.674999999999999 60.507000000000005 C 7.705999999999999 63.109 10.148 64.546 11.995 65.929 C 13.142999999999999 66.792 14.572999999999999 67.726 14.343 69.355 C 14.308 69.605 14.214 69.84700000000001 14.081 70.058 C 13.12 71.605 10.933 71.16000000000001 9.636 70.394 C 9.273 70.179 8.928999999999998 69.929 8.597 69.667 C 8.507 69.59700000000001 8.327 69.397 8.202 69.413 C 8.05 69.43599999999999 7.87 69.874 7.792 69.999 C 7.433 70.59299999999999 6.991 71.175 6.6979999999999995 71.804 M 25.557000000000002 58.515 L 25.526000000000003 56.007 L 21.09 56.007 L 21.09 82.062 L 25.528 82.062 L 25.528 71.07 C 26.508 72.05 27.418999999999997 73.047 28.773999999999997 73.5 C 29.644999999999996 73.789 30.589999999999996 73.832 31.500999999999998 73.766 C 32.24320401613943 73.71615350184528 32.97453665059428 73.56093050714745 33.672999999999995 73.305 C 37.824999999999996 71.78200000000001 39.568 67.09800000000001 39.129999999999995 62.989000000000004 C 38.840999999999994 60.321000000000005 37.501 57.673 35.020999999999994 56.42700000000001 C 34.336999999999996 56.087 33.63399999999999 55.833000000000006 32.87599999999999 55.708000000000006 C 31.7355906599992 55.5174813739414 30.568232453267832 55.56274628399834 29.44599999999999 55.84100000000001 C 27.78599999999999 56.27100000000001 26.71899999999999 57.333000000000006 25.55899999999999 58.51700000000001 M 73.137 58.33300000000001 L 73.11 58.33300000000001 L 73.11 56.68 L 73.079 56.055 L 72.77 56.008 L 68.485 56.008 L 68.485 73.367 L 73.11 73.367 L 73.11 65.375 C 73.11 63.898 72.926 62.27 73.508 60.875 C 74.399 58.719 77.871 57.863 79.535 59.648 C 80.60499999999999 60.800000000000004 80.488 62.543000000000006 80.488 63.996 L 80.488 73.367 L 85.078 73.367 L 85.078 63.906000000000006 C 85.078 61.98400000000001 85.19500000000001 59.87500000000001 84.211 58.148 C 82.441 55.05800000000001 77.629 54.93300000000001 74.914 56.742000000000004 C 74.328 57.133 73.46900000000001 57.69500000000001 73.137 58.33200000000001 M 48.766000000000005 55.97700000000001 L 48.766000000000005 65.04 C 48.766000000000005 66.73100000000001 48.57900000000001 68.65700000000001 49.168000000000006 70.274 C 49.434000000000005 71.012 49.81600000000001 71.747 50.391000000000005 72.294 C 52.223000000000006 74.044 55.438 74.192 57.70700000000001 73.294 C 58.91000000000001 72.814 59.836000000000006 71.974 60.73800000000001 71.071 L 60.73800000000001 73.368 L 65.33200000000001 73.368 L 65.33200000000001 56.281 L 65.281 56.007999999999996 L 64.933 55.977 L 60.73800000000001 55.977 L 60.73800000000001 63.937999999999995 C 60.73800000000001 65.43799999999999 60.906000000000006 67.08999999999999 60.285000000000004 68.50099999999999 C 59.992000000000004 69.157 59.515 69.73899999999999 58.902 70.118 C 57.511 70.97699999999999 55.218 70.92699999999999 54.156 69.571 C 53.324 68.509 53.359 67.114 53.359 65.837 L 53.359 56.896 C 53.359 56.724000000000004 53.453 56.123 53.308 56.009 C 53.23 55.947 53.058 55.978 52.96 55.978 L 48.765 55.978 M 107.98 56.193000000000005 L 107.98 58.459 L 108.01100000000001 59.295 L 108.83900000000001 59.721000000000004 L 111.01100000000001 60.78 L 115.30000000000001 62.874 L 118.73000000000002 64.55 L 115.63600000000002 66.073 L 110.85900000000002 68.43199999999999 L 108.80800000000002 69.44399999999999 L 108.01100000000002 69.85799999999999 L 107.98000000000002 70.70599999999999 L 107.98000000000002 72.87799999999999 C 108.35500000000002 72.81199999999998 108.74600000000002 72.53799999999998 109.08500000000002 72.36599999999999 L 111.22600000000003 71.29599999999999 L 118.14800000000002 67.86599999999999 L 120.71800000000002 66.58099999999999 C 121.03100000000002 66.42499999999998 121.60100000000001 66.26499999999999 121.83100000000002 66.00299999999999 C 121.95200000000001 65.86599999999999 121.88200000000002 65.48699999999998 121.88200000000002 65.31599999999999 L 121.88200000000002 63.87899999999999 C 121.88200000000002 63.67599999999999 121.92900000000002 63.40599999999999 121.87000000000002 63.21099999999999 C 121.80800000000002 62.99999999999999 121.21400000000001 62.81599999999999 121.02200000000002 62.72299999999999 L 118.48300000000002 61.45299999999999 L 111.35000000000002 57.87099999999999 L 109.11200000000002 56.737999999999985 C 108.74900000000002 56.55399999999999 108.37000000000002 56.30399999999999 107.97900000000003 56.194999999999986 M 29.752000000000024 58.34699999999999 C 31.510000000000023 58.13599999999999 32.95100000000002 59.29999999999999 33.66200000000002 60.81599999999999 C 34.68900000000002 63.00399999999999 34.57600000000002 66.04599999999999 33.68200000000002 68.25699999999999 C 33.135000000000026 69.609 32.08800000000002 70.913 30.549000000000024 71.07 C 28.346000000000025 71.29299999999999 26.658000000000023 70.00399999999999 25.944000000000024 67.949 C 25.674000000000024 67.176 25.561000000000025 66.347 25.526000000000025 65.53099999999999 C 25.421000000000024 63.10099999999999 25.827000000000023 59.83599999999999 28.342000000000024 58.68299999999999 C 28.795000000000023 58.47599999999999 29.264000000000024 58.401999999999994 29.752000000000024 58.346999999999994 z M 29.752000000000024 58.34699999999999" stroke-linecap="round" />
</g>
</svg>

<svg xmlns="http://www.w3.org/2000/svg" viewBox="0 0 128 128" width="200" height="200"><rect width="100%" height="80%" fill="white"/><path d="M41.172 47.891v25.477h4.594V47.891h-4.594m47.063 0v25.477h4.621V64.18c.703.813 1.285 1.766 1.914 2.633l3.156 4.379 1.324 1.84c.121.164.32.594.527.648.109.027.266-.055.367-.09l.824-.293 3.063-1.062-1.457-1.836-2.934-3.645-1.695-2.113-.895-1.07v-.031c.547-.418 1.016-1.051 1.477-1.562l2.629-2.816 1.262-1.348c.176-.199.402-.367.512-.613-.852-.242-1.695-.715-2.512-1.066-.203-.086-.727-.43-.945-.359-.152.051-.297.297-.398.418l-.926 1.07-3.488 4.043-.949 1.102c-.117.133-.258.371-.43.441-.121.047-.293.016-.426.016V47.891h-4.621m20.879 3.813a1.56 1.56 0 0 0-.641.242c-1.309.883-.531 3.105 1.07 2.852.242-.035.473-.113.676-.254 1.301-.898.492-3.09-1.105-2.84m.031.238c1.641-.234 1.988 2.406.367 2.617-1.605.211-1.953-2.387-.367-2.617m-.367 2.195h.277v-.734c.168 0 .352-.012.469.129.227.277.016.605.48.605-.059-.273-.059-.719-.367-.824.094-.062.188-.121.254-.215.391-.578-.687-.973-1.062-.672-.094.074-.051.32-.051.426v1.285m.277-.949c0-.137-.059-.445.031-.559.258-.316.965.422.305.551-.109.02-.227.008-.336.008M6.699 71.805c.996.66 1.918 1.328 3.09 1.648 2.969.813 7.176.34 8.703-2.719a4.38 4.38 0 0 0 .418-1.227c.105-.59.105-1.184.027-1.773-.336-2.473-3.035-3.949-4.832-5.34-.605-.469-1.332-.977-1.73-1.645-.68-1.141.266-2.285 1.426-2.488.809-.145 1.711.051 2.449.387.34.156.645.383.98.543.301-.547.66-1.062.984-1.594.082-.129.336-.418.305-.574-.035-.168-.445-.312-.586-.383-.629-.316-1.273-.582-1.957-.754-2.594-.652-6.059-.328-7.625 2.141a4.35 4.35 0 0 0-.555 1.316 4.85 4.85 0 0 0-.121 1.164c.031 2.602 2.473 4.039 4.32 5.422 1.148.863 2.578 1.797 2.348 3.426-.035.25-.129.492-.262.703-.961 1.547-3.148 1.102-4.445.336-.363-.215-.707-.465-1.039-.727-.09-.07-.27-.27-.395-.254-.152.023-.332.461-.41.586-.359.594-.801 1.176-1.094 1.805m18.859-13.289l-.031-2.508H21.09v26.055h4.438V71.07c.98.98 1.891 1.977 3.246 2.43.871.289 1.816.332 2.727.266a7.84 7.84 0 0 0 2.172-.461c4.152-1.523 5.895-6.207 5.457-10.316-.289-2.668-1.629-5.316-4.109-6.562-.684-.34-1.387-.594-2.145-.719a8.46 8.46 0 0 0-3.43.133c-1.66.43-2.727 1.492-3.887 2.676m47.578-.184h-.027V56.68l-.031-.625-.309-.047h-4.285v17.359h4.625v-7.992c0-1.477-.184-3.105.398-4.5.891-2.156 4.363-3.012 6.027-1.227 1.07 1.152.953 2.895.953 4.348v9.371h4.59v-9.461c0-1.922.117-4.031-.867-5.758-1.77-3.09-6.582-3.215-9.297-1.406-.586.391-1.445.953-1.777 1.59m-24.371-2.355v9.063c0 1.691-.187 3.617.402 5.234.266.738.648 1.473 1.223 2.02 1.832 1.75 5.047 1.898 7.316 1 1.203-.48 2.129-1.32 3.031-2.223v2.297h4.594V56.281l-.051-.273-.348-.031h-4.195v7.961c0 1.5.168 3.152-.453 4.563-.293.656-.77 1.238-1.383 1.617-1.391.859-3.684.809-4.746-.547-.832-1.062-.797-2.457-.797-3.734v-8.941c0-.172.094-.773-.051-.887-.078-.062-.25-.031-.348-.031h-4.195m59.215.215v2.266l.031.836.828.426 2.172 1.059 4.289 2.094 3.43 1.676-3.094 1.523-4.777 2.359-2.051 1.012-.797.414-.031.848v2.172c.375-.066.766-.34 1.105-.512l2.141-1.07 6.922-3.43 2.57-1.285c.313-.156.883-.316 1.113-.578.121-.137.051-.516.051-.687v-1.437c0-.203.047-.473-.012-.668-.062-.211-.656-.395-.848-.488l-2.539-1.27-7.133-3.582-2.238-1.133c-.363-.184-.742-.434-1.133-.543m-78.227 2.152c1.758-.211 3.199.953 3.91 2.469 1.027 2.188.914 5.23.02 7.441-.547 1.352-1.594 2.656-3.133 2.813-2.203.223-3.891-1.066-4.605-3.121-.27-.773-.383-1.602-.418-2.418-.105-2.43.301-5.695 2.816-6.848.453-.207.922-.281 1.41-.336zm0 0" fill="#0C1724"/></svg>
